X:1
T:Title
%%score ( 1 2 ) { 3 | 4 }
L:1/8
M:3/4
K:Ab
V:1 treble nm="Grand Piano, Mendon"
V:2 treble 
V:3 bass nm="Choir Pad, Unnamed-001"
V:4 bass 
V:1
 [CA]2 [DG]2 [EA]2 | [B,E]4 [A,A]2 | [DG]4 [CA]2 | [EB]6 | [CA]2 [Ec]2 [EA]2 | [DF]4 [FB]2 | %6
w: By~German~melody,~arranged~by~Samuel~Dyer,1828 * *||||||
 A3 B [EG]2 | [EA]6 | [EB]2 [EB]2 [EB]2 | [Ec]4 [EA]2 | d3- [Ed] [Ec]2 | [EB]6 | %12
w: ||||||
 [CA]2 [Ec]2 [EA]2 | [DF]4 [FB]2 | A3 B [EG]2 | [EA]6- | [EA]2 z2 z2 |] %17
w: |||||
V:2
 x6 | x6 | x6 | x6 | x6 | x6 | E4 z2 | x6 | x6 | x6 | D4 z2 | x6 | x6 | x6 | E4 z2 | x6 | x6 |] %17
V:3
 E,2 E,2 A,2 | G,4 E,2 | E,4 A,2 | G,6 | E,2 A,2 A,2 | A,4[K:treble] D2 | C3 D B,2 | C6 | %8
 G,2 G,2 G,2 | A,4 E,2 | F,3 G, A,2 | G,6 | A,2 A,2 A,2 | A,4[K:treble] D2 | C4 B,2 | C6- | %16
 C2 z2 z2 |] %17
V:4
 A,,2 B,,2 C,2 | E,3 D, C,2 | B,,4 A,,2 | E,6 | A,,2 A,,2 C,2 | D,4 B,,2 | E,4 E,2 | A,,6 | %8
 E,2 E,2 E,2 | z2 z2 C,2 | B,,4 A,,2 | E,6 | A,,2 A,,2 C,2 | D,4 B,,2 | E,4 E,2 | A,,6- | %16
 A,,2 z2 z2 |] %17

